src/assets/images/icon_bill.svg

<svg width="20" height="20" viewBox="0 0 20 20" fill="none" xmlns="http://www.w3.org/2000/svg">
<path d="M3.95312 15.6276V2.71094L5.82812 3.54427L7.91146 2.71094L9.99479 3.54427L12.0781 2.71094L14.1615 3.54427L16.0365 2.71094V15.6276C16.0365 16.5477 15.2899 17.2943 14.3698 17.2943H5.61979C4.69965 17.2943 3.95312 16.5477 3.95312 15.6276Z" stroke="#0D1011" stroke-width="1.5" stroke-miterlimit="10" stroke-linejoin="round"/>
<path d="M6.45312 7.71094H13.5365" stroke="#0D1011" stroke-width="1.5" stroke-miterlimit="10" stroke-linecap="round" stroke-linejoin="round"/>
<path d="M6.45312 11.4609H10.2031" stroke="#0D1011" stroke-width="1.5" stroke-miterlimit="10" stroke-linecap="round" stroke-linejoin="round"/>
<path d="M12.7031 11.4609H13.5365" stroke="#0D1011" stroke-width="1.5" stroke-miterlimit="10" stroke-linecap="round" stroke-linejoin="round"/>
<path d="M6.45312 13.9609H10.2031" stroke="#0D1011" stroke-width="1.5" stroke-miterlimit="10" stroke-linecap="round" stroke-linejoin="round"/>
<path d="M12.7031 13.9609H13.5365" stroke="#0D1011" stroke-width="1.5" stroke-miterlimit="10" stroke-linecap="round" stroke-linejoin="round"/>
</svg>

<svg width="20" height="20" fill="none" xmlns="http://www.w3.org/2000/svg"><path d="M3.953 15.628V2.71l1.875.833 2.083-.833 2.084.833 2.083-.833 2.084.833 1.874-.833v12.917c0 .92-.746 1.666-1.666 1.666H5.62c-.92 0-1.667-.746-1.667-1.666z" stroke="#0D1011" stroke-width="1.5" stroke-miterlimit="10" stroke-linejoin="round"/><path d="M6.453 7.71h7.083M6.453 11.46h3.75M12.703 11.46h.834M6.453 13.96h3.75M12.703 13.96h.834" stroke="#0D1011" stroke-width="1.5" stroke-miterlimit="10" stroke-linecap="round" stroke-linejoin="round"/></svg>
